assets/img/braze_icons/log-out-01.svg

<svg fill="none" height="24" viewBox="0 0 24 24" width="24" xmlns="http://www.w3.org/2000/svg"><g fill="#801ed7"><path d="m7.7587 2h1.2413c.55229 0 1 .44772 1 1 0 .55229-.44771 1-1 1h-1.2c-.85658 0-1.43887.00078-1.88896.03755-.43842.03582-.66262.10075-.81902.18044-.37632.19174-.68228.49771-.87403.87403-.07969.1564-.14462.3806-.18044.81902-.03677.45009-.03755 1.03238-.03755 1.88896v8.4c0 .8566.00078 1.4389.03755 1.889.03582.4384.10075.6626.18044.819.19174.3763.49771.6823.87403.874.1564.0797.3806.1446.81902.1804.45009.0368 1.03238.0376 1.88896.0376h1.2c.55229 0 1 .4477 1 1s-.44771 1-1 1h-1.24132c-.80496 0-1.46932 0-2.0105-.0442-.5621-.0459-1.07881-.1445-1.56414-.3918-.75265-.3835-1.36457-.9954-1.74806-1.748-.2473-.4854-.34586-1.0021-.39179-1.5642-.04421-.5412-.0442-1.2055-.04419-2.0105v-8.48259c-.00001-.80496-.00002-1.46935.0442-2.01053.04592-.5621.14449-1.07881.39178-1.56414.38349-.75265.99541-1.36457 1.74806-1.74806.48534-.2473 1.00204-.34586 1.56414-.39179.54119-.04421 1.20556-.0442 2.01052-.04419z"/><path d="m15.2929 6.29289c.3905-.39052 1.0237-.39052 1.4142 0l5 5.00001c.3905.3905.3905 1.0237 0 1.4142l-5 5c-.3905.3905-1.0237.3905-1.4142 0s-.3905-1.0237 0-1.4142l3.2929-3.2929h-9.5858c-.55228 0-1-.4477-1-1s.44772-1 1-1h9.5858l-3.2929-3.29289c-.3905-.39053-.3905-1.02369 0-1.41422z"/></g></svg>

<svg width="24" height="24" viewBox="0 0 24 24" fill="none" xmlns="http://www.w3.org/2000/svg">
<path d="M7.7587 2H9C9.55229 2 10 2.44772 10 3C10 3.55229 9.55229 4 9 4H7.8C6.94342 4 6.36113 4.00078 5.91104 4.03755C5.47262 4.07337 5.24842 4.1383 5.09202 4.21799C4.7157 4.40973 4.40974 4.7157 4.21799 5.09202C4.1383 5.24842 4.07337 5.47262 4.03755 5.91104C4.00078 6.36113 4 6.94342 4 7.8L4 16.2C4 17.0566 4.00078 17.6389 4.03755 18.089C4.07337 18.5274 4.1383 18.7516 4.21799 18.908C4.40973 19.2843 4.7157 19.5903 5.09202 19.782C5.24842 19.8617 5.47262 19.9266 5.91104 19.9624C6.36113 19.9992 6.94342 20 7.8 20H9C9.55229 20 10 20.4477 10 21C10 21.5523 9.55229 22 9 22H7.75868C6.95372 22 6.28936 22 5.74818 21.9558C5.18608 21.9099 4.66937 21.8113 4.18404 21.564C3.43139 21.1805 2.81947 20.5686 2.43598 19.816C2.18868 19.3306 2.09012 18.8139 2.04419 18.2518C1.99998 17.7106 1.99999 17.0463 2 16.2413V7.75871C1.99999 6.95375 1.99998 6.28936 2.0442 5.74818C2.09012 5.18608 2.18869 4.66937 2.43598 4.18404C2.81947 3.43139 3.43139 2.81947 4.18404 2.43598C4.66938 2.18868 5.18608 2.09012 5.74818 2.04419C6.28937 1.99998 6.95374 1.99999 7.7587 2Z" fill="#801ED7"/>
<path d="M15.2929 6.29289C15.6834 5.90237 16.3166 5.90237 16.7071 6.29289L21.7071 11.2929C22.0976 11.6834 22.0976 12.3166 21.7071 12.7071L16.7071 17.7071C16.3166 18.0976 15.6834 18.0976 15.2929 17.7071C14.9024 17.3166 14.9024 16.6834 15.2929 16.2929L18.5858 13H9C8.44772 13 8 12.5523 8 12C8 11.4477 8.44772 11 9 11H18.5858L15.2929 7.70711C14.9024 7.31658 14.9024 6.68342 15.2929 6.29289Z" fill="#801ED7"/>
</svg>
